X:1
T:Grave pen'in Amor
T:Cipriano de Rore
T:Source : Fantasie et recerchari a tre voci---Venetia---G.Scotto---1549. Editor : André Vierendeels (16/11/17). Notes : Original clefs : C1, C1, C4 Original note values have been halved Square brackets indicate ligatures Collected by Giuliano Tiburtino  
T:Grave pen'in Amor
T:©
T:©
T:©
T:©
T:©
T:©
T:©
C:Cipriano de Rore
Z:©
%%score [ 1 2 3 ]
L:1/8
Q:1/4=120
M:2/2
K:F
V:1 treble nm="Soprano" snm="S"
V:2 treble-8 nm="Tenor 1" snm="T 1"
V:3 treble-8 nm="Tenor 2" snm="T 2"
V:1
 c8 | A4 A4 | B4 B4- | B2 A2 AGAB | c3 B/A/ G2 A2- | A2 F2 D2 G2- | GF F3 E E2 | F2 C2 C2 C2 | %8
w: Gra-|ve pen'|_ in|_ A- mor _ _ _|_ _ _ _ si|_ pro- van' mol-||te di che pa-|
 D6 D2 | E2 E4 F2 | C2 D3 E F2- | FE D4 C2 | D2 A2 A3 G | F2 E2 F2 F2 | E2 E2 G2 D2 | A3 B c2 c2 | %16
w: ti- t'io|n'ho la mag-|gior par- * *||te et quell' in|dan- no mi- o|si ben ra- *|col- * * te,|
 z2 G2 c4 | =B2 c2 c2 A2- | AG/F/ E2 E2 F2- | FE D2 E2 F2- | F2 E2 z2 c2 | c2 B2 B2 A2 | %22
w: et quell'|un dan- no mi-|* * * o si ben|_ _ _ ra- col-|* te, ch'io|ne pos- so par-|
 c3 B A2 G2 | E2 F2 D3 D | F4 F4 | z2 E2 G4- | G2 G2 F4- | F2 E2 z2 E2- | E2 G2 G2 F2- | %29
w: lar _ _ co-|me per ar- *|* te|pe- ro|_ s'io di-|* co et|_ s'ho dett' al-|
 F2 E2 A3 B | B4 A4- | AG/F/ G2 DEFG | A4 z2 D2- | D2 F4 D2 | E2 E2 FGAB | c2 F2 G2 A2 | %36
w: * tre vol- *||* * * * te _ _ _|_ et|_ quan- do'in|vo- c'et quan- * * *|do'in vi- ve cer-|
 B4 A2 A2- | A2 G2 G2 cB | AG F3 E D2- | D2 C2 D2 D2 | F4 F2 E2 | D3 C DE F2 | D2 E2 F2 D2 | %43
w: * te, quan-|* do'in vi- vi _|_ _ _ _ _|* * ve car-|te ch'un mal|sia lie _ _ _|ve, ch'un mal sia|
 F2 E2 z2 E2 | G2 A2 E2 G2 | A3 G/F/ EDEF | G2 C2 z2 D2 | E4 F2 A2- | AG/F/ G2 A2 B2- | %49
w: lie- ve, un|al- tr'a cerb' et|fie- * * * * * *|* ro un|altr' a- cer-||
 BA A3 G G2 | A8 | z8 | z2 D2 F2 F2 | E2 D2 E2 c2 | c3 B AG F2 | E2 F3 EDC | D2 D2 z2 F2 | %57
w: * * bo et fie-|ro,||da- te cre-|denz' al mio giu-|di- * * * i-|o ve- * * *|* ro, da-|
 A2 A2 G2 F2 | E2 C2 CDEF | G2 A3 GFE | D2 F3 E E2 | F8 |] %62
w: te cre- denz' al|mi- o giu- * * *|* di- * * *|tio ve- * *|ro|
V:2
 z8 | F8 | D4 D4 | F4 F4- | F2 E2 E2 c2 | cBAG F2 B2 | A2 GF G4 | A4 z2 A2 | F2 F2 B4 | G4 c3 B | %10
w: |Gra-|ve pen'|_ in|_ A- mor si|pro- * * * * van'|mol- * * *|te, di|che pa- ti-|tio n'ho- *|
 AG F4 C2 | D3 E F2 E2 | F3 E DEFG | A2 A2 z2 A2 | c6 B2 | c2 c2 A3 G/F/ | E2 E2 F3 E | D2 C2 F4 | %18
w: * * * la|mag- * * gior|par- * * * * *|* te, et|quell' in|dan- no mi- * *|o, si ben ra-|col- * *|
 E2 c2 B2 A2 | A2 G2 c3 B | A2 G4 F2 | D2 F4 E2 | z2 c2 c4- | c2 c2 B4 | A2 A4 c2 | G2 G3 A B2- | %26
w: te, ch'io ne pos-|so par- lar _|_ co- me|per ar- te,|pe- ro|_ s'io di-|co, pe- ro|s'io di- * *|
 B2 AG AGAB | c2 CD EF G2- | G2 FE D4 | z2 C4 F2 | F2 G4 F2 | B4 A2 A2 | FGAB cA B2- | %33
w: ||* * * co,|et _|s'ho dett' al-|tre vol- t'et|s'o- * * * * * *|
 B2 A2 F2 F2 | c4 A4 | z8 | D4 F4- | F2 D2 E2 E2 | FGAB c2 F2 | G2 A2 B4 | A4 z4 | z2 B2 B2 A2 | %42
w: * dett' al- tre|vol- te,||et quan-|* do'in voc' et|quan- * * * * do'in|vi- ve car-|te|ch'un mal sia|
 G3 F/E/ DEFG | ABcA BAGF | EC c4 B2 | c4 z2 G2 | B2 A2 G2 G2 | c3 B AG F2- | FE E2 F2 D2 | %49
w: lie- * * * * * *|||ve, un'|al- tr'a- cer- b'et|fie- * * * *|* * * ro, da-|
 F2 F2 E2 D2 | E2 c2 c3 B | AG F4 F2 | B4 A2 A2 | A2 G2 A2 F2 | E2 A4 c2- | cBAG F4 | B4 A3 G | %57
w: te cre- denz' al|mio giu- di- *|* * * to|ve- ro da-|te cre- denz' al|mio giu- di-||tio ve- *|
 F4 E2 A2 | A2 E2 A2 G2 | E2 c2 cBAG | F2 D2 B4 | A8 |] %62
w: * ro, da-|te cre- denz' al|mio giu- di- * * *|* tio ve-|ro.|
V:3
 z4 F4- | F4 D4 | G4 G4 | D2 D3 EFG | A3 B c2 F2 | F2 F2 B3 A/G/ | d4 c4 | z2 F2 F2 F2 | B4 G4 | %9
w: Gra-|* ve|pen' in|A- mor _ _ _|_ _ _ si|pro- van' mol- * *|* te|di che pa-|ti- t'io-|
 c3 B AG F2- | F2 B2 B2 A2 | B4 A4 | z2 D4 d2- | d2 c2 d2 D2 | A3 G/F/ E2 G2 | F2 F2 FGAB | %16
w: n'ho- * * * *|* la mag- gior|par- te|et quel|_ in dan- no|mi- * * o si|ben ra- col- * * *|
 c2 c2 z2 F2 | G2 A2 A2 d2 | c3 B/A/ G2 F2 | D2 B2 A2 A2 | z2 c2 B2 A2 | B2 d2 c3 B | AG F4 E2 | %23
w: * te, et|quell' in dan- no|mi- * * o si|ben ra- col- te,|ch'io ne pos-|so par- lar, _|_ _ _ co-|
 A2 F2 GABc | d2 DE FGAB | c2 C2 _E2 E2 | _E4 D4 | z2 A2 c4- | c2 c2 B4 | A3 G F4 | z8 | %31
w: me per ar- * * *|* te _ _ _ _ _|_ pe- ro s'io|di- co,|pe- ro|_ s'io di-|* * co,||
 z4 z2 D2- | D2 F2 F2 G2- | G2 D2 B4 | A4 z2 F2- | F2 B4 F2 | G2 G2 DEFG | A2 B2 c2 A2 | d4 A2 B2 | %39
w: et|_ s'io dett' al-|* tre vol-|te, et|_ quan- do'in|uc- ce, et _ _ _|quan- do'in vi- ve|car- te ch'un|
 B2 A2 G3 F | DEFG ABcA | BAGA Bc d2 | G2 c2 B2 B2 | A3 G/F/ G2 C2 | z2 F2 A2 G2 | F2 F2 c4 | %46
w: mal sia lie- *||* * * * * * ve|ch'un mal sia le-|* * * * ve,|m'al- tr'a- cer-|* b'et fie-|
 G2 F2 c2 B2 | A2 c2 d4 | c4 z2 G2 | d2 d2 c2 B2 | A2 F2 FGAB | c2 d2 B3 A | GF G2 F2 D2 | %53
w: ro, un' al- tr'a-|cerb' et fie-|ro, da-|te cre- denz' al|mio giu- di- * * *|* tio ve- *|* * * ro, da-|
 A2 B2 A2 A2 | A2 F2 FGAB | c2 d2 dcBA | G4 D2 D2 | D2 F2 C2 D2 | A4 F2 c2- | cBAG F2 F2 | %60
w: te cre- denz' al|mio giu- di- * * *|* tio ve- * * *|* ro, da-|te cre- denz' al|mio giu- di-|* * * * * tio|
 B3 A G4 | F8 |] %62
w: ve- * *|ro.|

